src/components/Icon/icons/layout.svg

<svg xmlns="http://www.w3.org/2000/svg" width="100%" height="100%" viewBox="0 0 20 20" fill="none">
  <path d="M8.35938 8.125C8.35938 7.73667 8.04458 7.42188 7.65625 7.42188C7.26792 7.42188 6.95312 7.73667 6.95312 8.125H8.35938ZM6.95312 17.5C6.95312 17.8883 7.26792 18.2031 7.65625 18.2031C8.04458 18.2031 8.35938 17.8883 8.35938 17.5H6.95312ZM5.3125 3.20313H14.6875V1.79687H5.3125V3.20313ZM16.7969 5.3125V14.6875H18.2031V5.3125H16.7969ZM14.6875 16.7969H5.3125V18.2031H14.6875V16.7969ZM3.20313 14.6875V5.3125H1.79687V14.6875H3.20313ZM5.3125 16.7969C4.14752 16.7969 3.20313 15.8525 3.20313 14.6875H1.79687C1.79687 16.6291 3.37087 18.2031 5.3125 18.2031V16.7969ZM16.7969 14.6875C16.7969 15.8525 15.8525 16.7969 14.6875 16.7969V18.2031C16.6291 18.2031 18.2031 16.6291 18.2031 14.6875H16.7969ZM14.6875 3.20313C15.8525 3.20313 16.7969 4.14752 16.7969 5.3125H18.2031C18.2031 3.37087 16.6291 1.79687 14.6875 1.79687V3.20313ZM5.3125 1.79687C3.37087 1.79687 1.79687 3.37087 1.79687 5.3125H3.20313C3.20313 4.14752 4.14752 3.20313 5.3125 3.20313V1.79687ZM6.95312 8.125V17.5H8.35938V8.125H6.95312ZM2.96875 8.35938H17.0312V6.95312H2.96875V8.35938Z" fill="currentColor"/>
</svg>

<svg xmlns="http://www.w3.org/2000/svg" fill="none" viewBox="0 0 20 20"><path fill="currentColor" d="M8.36 8.125a.703.703 0 1 0-1.407 0zM6.952 17.5a.703.703 0 0 0 1.406 0zM5.313 3.203h9.375V1.797H5.313zm11.484 2.11v9.375h1.406V5.313zm-2.11 11.484H5.313v1.406h9.375zm-11.484-2.11V5.313H1.797v9.375zm2.11 2.11a2.11 2.11 0 0 1-2.11-2.11H1.797a3.516 3.516 0 0 0 3.516 3.516zm11.484-2.11a2.11 2.11 0 0 1-2.11 2.11v1.406a3.516 3.516 0 0 0 3.516-3.515zm-2.11-11.484a2.11 2.11 0 0 1 2.11 2.11h1.406a3.516 3.516 0 0 0-3.515-3.516zM5.313 1.797a3.516 3.516 0 0 0-3.516 3.516h1.406a2.11 2.11 0 0 1 2.11-2.11zm1.64 6.328V17.5H8.36V8.125zm-3.984.234H17.03V6.953H2.97z"/></svg>
